src/svg/hamburger.svg

<svg width="26" height="25" viewBox="0 0 26 25" fill="none" xmlns="http://www.w3.org/2000/svg">
<path fill-rule="evenodd" clip-rule="evenodd" d="M2.82617 6.54771C2.82617 6.18872 3.11719 5.89771 3.47617 5.89771H22.5238C22.8828 5.89771 23.1738 6.18872 23.1738 6.54771C23.1738 6.90669 22.8828 7.19771 22.5238 7.19771H3.47617C3.11719 7.19771 2.82617 6.90669 2.82617 6.54771ZM2.82617 12.5001C2.82617 12.1411 3.11719 11.8501 3.47617 11.8501L22.5238 11.8501C22.8828 11.8501 23.1738 12.1411 23.1738 12.5001C23.1738 12.8591 22.8828 13.1501 22.5238 13.1501L3.47617 13.1501C3.11719 13.1501 2.82617 12.8591 2.82617 12.5001ZM3.47617 17.8025C3.11719 17.8025 2.82617 18.0935 2.82617 18.4525C2.82617 18.8115 3.11719 19.1025 3.47617 19.1025H22.5238C22.8828 19.1025 23.1738 18.8115 23.1738 18.4525C23.1738 18.0935 22.8828 17.8025 22.5238 17.8025H3.47617Z" fill="#101F33"/>
</svg>

<svg xmlns="http://www.w3.org/2000/svg" width="26" height="25" fill="none"><path fill-rule="evenodd" d="M2.826 6.548a.65.65 0 0 1 .65-.65h19.048a.65.65 0 0 1 0 1.3H3.476a.65.65 0 0 1-.65-.65zm0 5.952a.65.65 0 0 1 .65-.65h19.048a.65.65 0 1 1 0 1.3H3.476a.65.65 0 0 1-.65-.65zm.65 5.302a.65.65 0 1 0 0 1.3h19.048a.65.65 0 1 0 0-1.3H3.476z" fill="#101f33"/></svg>
